X: 25506
T: Margaret MacLachlan
R: jig
M: 6/8
K: Dmajor
|:Add dB/c/d|ede fef|g3 Bcd|ecA A2B|
Add dB/c/d|ede fef|Bgf edc|1 d3 dcB:|2 d3 dfg||
a3 ded|faf def|g3 Bcd|ecA A2g|
a3 ded|faf def|g3 edc|d3 dfg|
a3 ded|faf def|g3 Bcd|efd cBA|
Add dB/c/d|ede fef|Bgf edc|d3 d2B||

